X:206
T:Reel TS.206
M:2/4
L:1/8
Q:1/2=60
S:Thomas Sands’ MS,1810,Lincolnshire
R:reel
O:England;Lincolnshire
C:In different hand B
Z:vmp.Ruairidh Greig, 2011
K:F
d|c>A G>F|f>ga>g|(f<d) c>A|dGGd|(c<A) G>F|f>ga>g|(f<d) c>A|F2″cr. in ms”F:|
c|(d/e/f) ec|dfcA|(B/c/d) cA|dGGc|(d/e/)f ec|bgaf|(d/e/)f cB|AFFc|
(d/e/)f ec|bgaf|(d/e/)f cB|dGGA|F>GFA|cbag|(f>d) c>A|F2F|]

